X:1
T:Title
L:1/8
M:6/8
I:linebreak $
K:G
V:1 treble nm="Voice"
V:1
"Em" Bed cBA | GFE B,EG |"D7" FBB cBB | eBB cBA |"Em" Bed cBA | GFE B,EG |"D7" FBB cBA |1 %7
"Em" GEE E2 A :|2"Em" GEE E2 g |:"Em" gec Gce | gaf gec |"D7" cBA EAc |"Em" Be^d eBG | %13
"D" FBB"Em" GBB |"D" FBA GFE |"Em" B,EG"D7" cBA |1"Em" GEE E2 g :|2"Em" GEE E2 A |] %18
